image/logo.svg

<svg width="99" height="10" viewBox="0 0 99 10" fill="none" xmlns="http://www.w3.org/2000/svg">
<path d="M0.72 9V0.599999H3.9C4.36 0.599999 4.776 0.695999 5.148 0.887999C5.52 1.076 5.814 1.344 6.03 1.692C6.25 2.04 6.36 2.448 6.36 2.916C6.36 3.092 6.338 3.278 6.294 3.474C6.25 3.666 6.172 3.846 6.06 4.014C5.948 4.182 5.788 4.314 5.58 4.41C5.848 4.474 6.06 4.594 6.216 4.77C6.372 4.946 6.488 5.15 6.564 5.382C6.644 5.61 6.696 5.842 6.72 6.078C6.744 6.31 6.756 6.52 6.756 6.708C6.756 7.132 6.642 7.518 6.414 7.866C6.186 8.21 5.88 8.486 5.496 8.694C5.112 8.898 4.688 9 4.224 9H0.72ZM2.52 7.476H4.032C4.24 7.476 4.428 7.428 4.596 7.332C4.768 7.232 4.904 7.096 5.004 6.924C5.108 6.752 5.16 6.556 5.16 6.336C5.16 6.152 5.108 5.978 5.004 5.814C4.904 5.646 4.768 5.51 4.596 5.406C4.428 5.302 4.24 5.25 4.032 5.25H2.52V7.476ZM2.52 3.75H3.684C3.924 3.75 4.13 3.67 4.302 3.51C4.474 3.35 4.56 3.148 4.56 2.904C4.56 2.656 4.474 2.466 4.302 2.334C4.13 2.202 3.924 2.136 3.684 2.136H2.52V3.75ZM11.7272 9.156C11.1592 9.156 10.6252 9.044 10.1252 8.82C9.62519 8.592 9.18519 8.278 8.80519 7.878C8.42519 7.478 8.12719 7.016 7.91119 6.492C7.69519 5.964 7.58719 5.4 7.58719 4.8C7.58719 4.2 7.69519 3.638 7.91119 3.114C8.12719 2.586 8.42519 2.122 8.80519 1.722C9.18519 1.322 9.62519 1.01 10.1252 0.786C10.6252 0.557999 11.1592 0.443999 11.7272 0.443999C12.2992 0.443999 12.8352 0.557999 13.3352 0.786C13.8352 1.01 14.2752 1.322 14.6552 1.722C15.0352 2.122 15.3312 2.586 15.5432 3.114C15.7592 3.638 15.8672 4.2 15.8672 4.8C15.8672 5.4 15.7592 5.964 15.5432 6.492C15.3312 7.016 15.0352 7.478 14.6552 7.878C14.2752 8.278 13.8352 8.592 13.3352 8.82C12.8352 9.044 12.2992 9.156 11.7272 9.156ZM11.7272 7.356C12.0472 7.356 12.3472 7.29 12.6272 7.158C12.9112 7.022 13.1612 6.838 13.3772 6.606C13.5932 6.37 13.7612 6.098 13.8812 5.79C14.0052 5.482 14.0672 5.152 14.0672 4.8C14.0672 4.448 14.0052 4.118 13.8812 3.81C13.7612 3.502 13.5932 3.232 13.3772 3C13.1612 2.764 12.9112 2.58 12.6272 2.448C12.3472 2.312 12.0472 2.244 11.7272 2.244C11.4072 2.244 11.1052 2.312 10.8212 2.448C10.5412 2.58 10.2932 2.764 10.0772 3C9.86119 3.232 9.69119 3.502 9.56719 3.81C9.44719 4.118 9.38719 4.448 9.38719 4.8C9.38719 5.152 9.44719 5.482 9.56719 5.79C9.69119 6.098 9.86119 6.37 10.0772 6.606C10.2932 6.838 10.5412 7.022 10.8212 7.158C11.1052 7.29 11.4072 7.356 11.7272 7.356ZM17.1258 9V0.599999H19.9098C20.4898 0.599999 21.0318 0.71 21.5358 0.93C22.0438 1.146 22.4898 1.448 22.8738 1.836C23.2618 2.22 23.5638 2.666 23.7798 3.174C23.9998 3.678 24.1098 4.22 24.1098 4.8C24.1098 5.38 23.9998 5.924 23.7798 6.432C23.5638 6.936 23.2618 7.382 22.8738 7.77C22.4898 8.154 22.0438 8.456 21.5358 8.676C21.0318 8.892 20.4898 9 19.9098 9H17.1258ZM18.9258 7.2H19.9098C20.2338 7.2 20.5398 7.138 20.8278 7.014C21.1158 6.89 21.3718 6.718 21.5958 6.498C21.8198 6.278 21.9938 6.024 22.1178 5.736C22.2458 5.444 22.3098 5.132 22.3098 4.8C22.3098 4.468 22.2458 4.158 22.1178 3.87C21.9938 3.582 21.8198 3.328 21.5958 3.108C21.3758 2.884 21.1218 2.71 20.8338 2.586C20.5458 2.462 20.2378 2.4 19.9098 2.4H18.9258V7.2ZM25.2525 9V0.599999H28.6725C29.1325 0.599999 29.5485 0.716 29.9205 0.948C30.2925 1.18 30.5865 1.492 30.8025 1.884C31.0225 2.272 31.1325 2.7 31.1325 3.168C31.1325 3.528 31.0725 3.864 30.9525 4.176C30.8325 4.484 30.6605 4.758 30.4365 4.998C30.2165 5.234 29.9565 5.424 29.6565 5.568L31.6485 9H29.5725L27.6765 5.736H27.0525V9H25.2525ZM27.0525 3.936H28.4565C28.6165 3.936 28.7625 3.896 28.8945 3.816C29.0265 3.732 29.1325 3.622 29.2125 3.486C29.2925 3.35 29.3325 3.2 29.3325 3.036C29.3325 2.872 29.2925 2.722 29.2125 2.586C29.1325 2.45 29.0265 2.342 28.8945 2.262C28.7625 2.178 28.6165 2.136 28.4565 2.136H27.0525V3.936ZM36.5058 9.156C35.9378 9.156 35.4038 9.044 34.9038 8.82C34.4038 8.592 33.9638 8.278 33.5838 7.878C33.2038 7.478 32.9058 7.016 32.6898 6.492C32.4738 5.964 32.3658 5.4 32.3658 4.8C32.3658 4.2 32.4738 3.638 32.6898 3.114C32.9058 2.586 33.2038 2.122 33.5838 1.722C33.9638 1.322 34.4038 1.01 34.9038 0.786C35.4038 0.557999 35.9378 0.443999 36.5058 0.443999C37.0778 0.443999 37.6138 0.557999 38.1138 0.786C38.6138 1.01 39.0538 1.322 39.4338 1.722C39.8138 2.122 40.1098 2.586 40.3218 3.114C40.5378 3.638 40.6458 4.2 40.6458 4.8C40.6458 5.4 40.5378 5.964 40.3218 6.492C40.1098 7.016 39.8138 7.478 39.4338 7.878C39.0538 8.278 38.6138 8.592 38.1138 8.82C37.6138 9.044 37.0778 9.156 36.5058 9.156ZM36.5058 7.356C36.8258 7.356 37.1258 7.29 37.4058 7.158C37.6898 7.022 37.9398 6.838 38.1558 6.606C38.3718 6.37 38.5398 6.098 38.6598 5.79C38.7838 5.482 38.8458 5.152 38.8458 4.8C38.8458 4.448 38.7838 4.118 38.6598 3.81C38.5398 3.502 38.3718 3.232 38.1558 3C37.9398 2.764 37.6898 2.58 37.4058 2.448C37.1258 2.312 36.8258 2.244 36.5058 2.244C36.1858 2.244 35.8838 2.312 35.5998 2.448C35.3198 2.58 35.0718 2.764 34.8558 3C34.6398 3.232 34.4698 3.502 34.3458 3.81C34.2258 4.118 34.1658 4.448 34.1658 4.8C34.1658 5.152 34.2258 5.482 34.3458 5.79C34.4698 6.098 34.6398 6.37 34.8558 6.606C35.0718 6.838 35.3198 7.022 35.5998 7.158C35.8838 7.29 36.1858 7.356 36.5058 7.356ZM44.5277 9L41.4797 0.599999H43.3877L45.6917 6.936L47.9957 0.599999H49.9037L46.8557 9H44.5277Z" fill="#FFAE1B"/>
<path d="M55.3548 9.156C54.7788 9.156 54.2388 9.044 53.7348 8.82C53.2348 8.592 52.7968 8.278 52.4208 7.878C52.0448 7.474 51.7508 7.01 51.5388 6.486C51.3268 5.958 51.2208 5.394 51.2208 4.794C51.2208 4.182 51.3308 3.612 51.5508 3.084C51.7708 2.556 52.0728 2.096 52.4568 1.704C52.8408 1.308 53.2808 1 53.7768 0.779999C54.2768 0.559999 54.8068 0.45 55.3668 0.45C56.0108 0.45 56.6188 0.6 57.1908 0.9C57.7668 1.2 58.2548 1.626 58.6548 2.178L57.9048 2.586C57.5848 2.166 57.1988 1.844 56.7468 1.62C56.2988 1.396 55.8368 1.284 55.3608 1.284C54.9088 1.284 54.4828 1.376 54.0828 1.56C53.6868 1.74 53.3368 1.992 53.0328 2.316C52.7288 2.64 52.4908 3.014 52.3188 3.438C52.1468 3.862 52.0608 4.318 52.0608 4.806C52.0608 5.29 52.1468 5.744 52.3188 6.168C52.4908 6.592 52.7268 6.966 53.0268 7.29C53.3308 7.61 53.6828 7.862 54.0828 8.046C54.4828 8.226 54.9108 8.316 55.3668 8.316C55.7428 8.316 56.0988 8.252 56.4348 8.124C56.7748 7.992 57.0848 7.808 57.3648 7.572C57.6448 7.336 57.8808 7.06 58.0728 6.744C58.2688 6.428 58.4108 6.084 58.4988 5.712H56.2308V4.95H59.4768C59.4648 5.53 59.3488 6.074 59.1288 6.582C58.9088 7.09 58.6088 7.538 58.2288 7.926C57.8528 8.31 57.4188 8.612 56.9268 8.832C56.4388 9.048 55.9148 9.156 55.3548 9.156ZM60.9352 9V0.599999H66.0472V1.44H61.7752V4.08H65.3092V4.92H61.7752V8.16H66.0472V9H60.9352ZM71.3916 9.156C70.8236 9.156 70.2896 9.044 69.7896 8.82C69.2896 8.592 68.8496 8.278 68.4696 7.878C68.0896 7.478 67.7916 7.016 67.5756 6.492C67.3596 5.964 67.2516 5.4 67.2516 4.8C67.2516 4.2 67.3596 3.638 67.5756 3.114C67.7916 2.586 68.0896 2.122 68.4696 1.722C68.8496 1.322 69.2896 1.01 69.7896 0.786C70.2896 0.557999 70.8236 0.443999 71.3916 0.443999C71.9636 0.443999 72.4996 0.557999 72.9996 0.786C73.4996 1.01 73.9396 1.322 74.3196 1.722C74.6996 2.122 74.9956 2.586 75.2076 3.114C75.4236 3.638 75.5316 4.2 75.5316 4.8C75.5316 5.4 75.4236 5.964 75.2076 6.492C74.9956 7.016 74.6996 7.478 74.3196 7.878C73.9396 8.278 73.4996 8.592 72.9996 8.82C72.4996 9.044 71.9636 9.156 71.3916 9.156ZM71.3916 8.316C71.8516 8.316 72.2796 8.224 72.6756 8.04C73.0756 7.852 73.4256 7.596 73.7256 7.272C74.0296 6.948 74.2656 6.574 74.4336 6.15C74.6056 5.726 74.6916 5.276 74.6916 4.8C74.6916 4.32 74.6056 3.868 74.4336 3.444C74.2616 3.016 74.0236 2.642 73.7196 2.322C73.4196 1.998 73.0696 1.744 72.6696 1.56C72.2736 1.376 71.8476 1.284 71.3916 1.284C70.9316 1.284 70.5016 1.378 70.1016 1.566C69.7056 1.75 69.3556 2.004 69.0516 2.328C68.7516 2.652 68.5156 3.026 68.3436 3.45C68.1756 3.874 68.0916 4.324 68.0916 4.8C68.0916 5.284 68.1776 5.738 68.3496 6.162C68.5216 6.586 68.7576 6.96 69.0576 7.284C69.3616 7.608 69.7116 7.862 70.1076 8.046C70.5076 8.226 70.9356 8.316 71.3916 8.316ZM76.9894 9V0.599999H79.8394C80.2874 0.599999 80.6914 0.71 81.0514 0.93C81.4114 1.146 81.6974 1.44 81.9094 1.812C82.1214 2.18 82.2274 2.594 82.2274 3.054C82.2274 3.466 82.1434 3.84 81.9754 4.176C81.8074 4.512 81.5774 4.79 81.2854 5.01C80.9974 5.23 80.6714 5.376 80.3074 5.448L82.3594 9H81.3874L79.3654 5.514H77.8294V9H76.9894ZM77.8294 4.674H79.7674C80.0634 4.674 80.3334 4.602 80.5774 4.458C80.8254 4.31 81.0214 4.112 81.1654 3.864C81.3134 3.612 81.3874 3.328 81.3874 3.012C81.3874 2.696 81.3134 2.414 81.1654 2.166C81.0214 1.914 80.8254 1.716 80.5774 1.572C80.3334 1.424 80.0634 1.35 79.7674 1.35H77.8294V4.674ZM87.6507 9.156C87.0747 9.156 86.5347 9.044 86.0307 8.82C85.5307 8.592 85.0927 8.278 84.7167 7.878C84.3407 7.474 84.0467 7.01 83.8347 6.486C83.6227 5.958 83.5167 5.394 83.5167 4.794C83.5167 4.182 83.6267 3.612 83.8467 3.084C84.0667 2.556 84.3687 2.096 84.7527 1.704C85.1367 1.308 85.5767 1 86.0727 0.779999C86.5727 0.559999 87.1027 0.45 87.6627 0.45C88.3067 0.45 88.9147 0.6 89.4867 0.9C90.0627 1.2 90.5507 1.626 90.9507 2.178L90.2007 2.586C89.8807 2.166 89.4947 1.844 89.0427 1.62C88.5947 1.396 88.1327 1.284 87.6567 1.284C87.2047 1.284 86.7787 1.376 86.3787 1.56C85.9827 1.74 85.6327 1.992 85.3287 2.316C85.0247 2.64 84.7867 3.014 84.6147 3.438C84.4427 3.862 84.3567 4.318 84.3567 4.806C84.3567 5.29 84.4427 5.744 84.6147 6.168C84.7867 6.592 85.0227 6.966 85.3227 7.29C85.6267 7.61 85.9787 7.862 86.3787 8.046C86.7787 8.226 87.2067 8.316 87.6627 8.316C88.0387 8.316 88.3947 8.252 88.7307 8.124C89.0707 7.992 89.3807 7.808 89.6607 7.572C89.9407 7.336 90.1767 7.06 90.3687 6.744C90.5647 6.428 90.7067 6.084 90.7947 5.712H88.5267V4.95H91.7727C91.7607 5.53 91.6447 6.074 91.4247 6.582C91.2047 7.09 90.9047 7.538 90.5247 7.926C90.1487 8.31 89.7147 8.612 89.2227 8.832C88.7347 9.048 88.2107 9.156 87.6507 9.156ZM97.8752 0.599999H98.8652L96.0332 5.196V9H95.1932V5.196L92.3672 0.599999H93.3572L95.6132 4.278L97.8752 0.599999Z" fill="white"/>
</svg>

<svg width="99" height="10" fill="none" xmlns="http://www.w3.org/2000/svg"><path d="M.72 9V.6H3.9c.46 0 .876.096 1.248.288.372.188.666.456.882.804.22.348.33.756.33 1.224 0 .176-.022.362-.066.558a1.618 1.618 0 0 1-.234.54c-.112.168-.272.3-.48.396.268.064.48.184.636.36.156.176.272.38.348.612.08.228.132.46.156.696.024.232.036.442.036.63 0 .424-.114.81-.342 1.158-.228.344-.534.62-.918.828A2.669 2.669 0 0 1 4.224 9H.72Zm1.8-1.524h1.512c.208 0 .396-.048.564-.144.172-.1.308-.236.408-.408.104-.172.156-.368.156-.588a.959.959 0 0 0-.156-.522 1.172 1.172 0 0 0-.408-.408 1.05 1.05 0 0 0-.564-.156H2.52v2.226Zm0-3.726h1.164c.24 0 .446-.08.618-.24a.792.792 0 0 0 .258-.606c0-.248-.086-.438-.258-.57a.985.985 0 0 0-.618-.198H2.52V3.75Zm9.207 5.406a3.873 3.873 0 0 1-1.602-.336 4.22 4.22 0 0 1-1.32-.942A4.425 4.425 0 0 1 7.587 4.8a4.442 4.442 0 0 1 1.218-3.078c.38-.4.82-.712 1.32-.936a3.816 3.816 0 0 1 1.602-.342 3.83 3.83 0 0 1 1.608.342c.5.224.94.536 1.32.936.38.4.676.864.888 1.392a4.38 4.38 0 0 1 .324 1.686c0 .6-.108 1.164-.324 1.692a4.374 4.374 0 0 1-.888 1.386c-.38.4-.82.714-1.32.942-.5.224-1.036.336-1.608.336Zm0-1.8c.32 0 .62-.066.9-.198a2.48 2.48 0 0 0 1.254-1.368c.124-.308.186-.638.186-.99s-.062-.682-.186-.99a2.516 2.516 0 0 0-.504-.81 2.353 2.353 0 0 0-.75-.552 2.033 2.033 0 0 0-.9-.204c-.32 0-.622.068-.906.204-.28.132-.528.316-.744.552a2.602 2.602 0 0 0-.51.81c-.12.308-.18.638-.18.99s.06.682.18.99c.124.308.294.58.51.816.216.232.464.416.744.552.284.132.586.198.906.198ZM17.126 9V.6h2.784c.58 0 1.122.11 1.626.33.508.216.954.518 1.338.906.388.384.69.83.906 1.338.22.504.33 1.046.33 1.626 0 .58-.11 1.124-.33 1.632a4.277 4.277 0 0 1-2.244 2.244A4.084 4.084 0 0 1 19.91 9h-2.784Zm1.8-1.8h.984c.324 0 .63-.062.918-.186.288-.124.544-.296.768-.516a2.374 2.374 0 0 0 .522-2.628 2.374 2.374 0 0 0-.522-.762 2.374 2.374 0 0 0-.762-.522 2.311 2.311 0 0 0-.924-.186h-.984v4.8ZM25.253 9V.6h3.42c.46 0 .876.116 1.248.348.372.232.666.544.881.936.22.388.33.816.33 1.284 0 .36-.06.696-.18 1.008a2.584 2.584 0 0 1-1.296 1.392L31.649 9h-2.075l-1.896-3.264h-.625V9h-1.8Zm1.8-5.064h1.403c.16 0 .306-.04.439-.12a.966.966 0 0 0 .317-.33.871.871 0 0 0 .12-.45.871.871 0 0 0-.12-.45.914.914 0 0 0-.317-.324.8.8 0 0 0-.439-.126h-1.404v1.8Zm9.453 5.22a3.873 3.873 0 0 1-1.602-.336 4.22 4.22 0 0 1-1.32-.942A4.425 4.425 0 0 1 32.366 4.8a4.442 4.442 0 0 1 1.218-3.078c.38-.4.82-.712 1.32-.936a3.816 3.816 0 0 1 1.602-.342 3.83 3.83 0 0 1 1.608.342c.5.224.94.536 1.32.936.38.4.676.864.888 1.392a4.38 4.38 0 0 1 .324 1.686c0 .6-.108 1.164-.324 1.692a4.374 4.374 0 0 1-.888 1.386c-.38.4-.82.714-1.32.942-.5.224-1.036.336-1.608.336Zm0-1.8c.32 0 .62-.066.9-.198A2.48 2.48 0 0 0 38.66 5.79c.124-.308.186-.638.186-.99s-.062-.682-.186-.99a2.516 2.516 0 0 0-.504-.81 2.353 2.353 0 0 0-.75-.552 2.033 2.033 0 0 0-.9-.204c-.32 0-.622.068-.906.204-.28.132-.528.316-.744.552a2.602 2.602 0 0 0-.51.81c-.12.308-.18.638-.18.99s.06.682.18.99c.124.308.294.58.51.816.216.232.464.416.744.552.284.132.586.198.906.198ZM44.528 9 41.48.6h1.908l2.304 6.336L47.996.6h1.908L46.856 9h-2.328Z" fill="#FFAE1B"/><path d="M55.355 9.156a3.943 3.943 0 0 1-1.62-.336 4.149 4.149 0 0 1-1.314-.942 4.502 4.502 0 0 1-.882-1.392 4.498 4.498 0 0 1-.318-1.692c0-.612.11-1.182.33-1.71A4.33 4.33 0 0 1 53.777.78c.5-.22 1.03-.33 1.59-.33.644 0 1.252.15 1.824.45.576.3 1.064.726 1.464 1.278l-.75.408a3.268 3.268 0 0 0-1.158-.966 3.064 3.064 0 0 0-2.664-.06c-.396.18-.746.432-1.05.756a3.603 3.603 0 0 0-.972 2.49c0 .484.086.938.258 1.362.172.424.408.798.708 1.122.304.32.656.572 1.056.756.4.18.828.27 1.284.27.376 0 .732-.064 1.068-.192a3.35 3.35 0 0 0 1.638-1.38 3.45 3.45 0 0 0 .426-1.032H56.23V4.95h3.246a4.29 4.29 0 0 1-.348 1.632c-.22.508-.52.956-.9 1.344-.376.384-.81.686-1.302.906a3.84 3.84 0 0 1-1.572.324ZM60.935 9V.6h5.112v.84h-4.272v2.64h3.534v.84h-3.534v3.24h4.272V9h-5.112Zm10.457.156a3.873 3.873 0 0 1-1.602-.336 4.22 4.22 0 0 1-1.32-.942A4.425 4.425 0 0 1 67.252 4.8a4.442 4.442 0 0 1 1.218-3.078c.38-.4.82-.712 1.32-.936a3.816 3.816 0 0 1 1.602-.342A3.83 3.83 0 0 1 73 .786c.5.224.94.536 1.32.936.38.4.676.864.888 1.392a4.38 4.38 0 0 1 .324 1.686c0 .6-.108 1.164-.324 1.692a4.374 4.374 0 0 1-.888 1.386c-.38.4-.82.714-1.32.942-.5.224-1.036.336-1.608.336Zm0-.84c.46 0 .888-.092 1.284-.276a3.516 3.516 0 0 0 1.758-1.89c.172-.424.258-.874.258-1.35 0-.48-.086-.932-.258-1.356a3.513 3.513 0 0 0-.714-1.122c-.3-.324-.65-.578-1.05-.762a2.996 2.996 0 0 0-1.278-.276c-.46 0-.89.094-1.29.282a3.384 3.384 0 0 0-1.05.762 3.66 3.66 0 0 0-.708 1.122 3.631 3.631 0 0 0-.252 1.35c0 .484.086.938.258 1.362.172.424.408.798.708 1.122.304.324.654.578 1.05.762.4.18.828.27 1.284.27ZM76.989 9V.6h2.85c.448 0 .852.11 1.212.33a2.443 2.443 0 0 1 1.176 2.124c0 .412-.084.786-.252 1.122a2.336 2.336 0 0 1-.69.834c-.288.22-.614.366-.978.438L82.36 9h-.972l-2.022-3.486H77.83V9h-.84Zm.84-4.326h1.938c.296 0 .566-.072.81-.216a1.65 1.65 0 0 0 .81-1.446c0-.316-.074-.598-.222-.846a1.582 1.582 0 0 0-.588-.594 1.532 1.532 0 0 0-.81-.222H77.83v3.324Zm9.822 4.482a3.943 3.943 0 0 1-1.62-.336 4.149 4.149 0 0 1-1.314-.942 4.502 4.502 0 0 1-.882-1.392 4.498 4.498 0 0 1-.318-1.692c0-.612.11-1.182.33-1.71A4.33 4.33 0 0 1 86.073.78c.5-.22 1.03-.33 1.59-.33.644 0 1.252.15 1.824.45.576.3 1.064.726 1.464 1.278l-.75.408a3.268 3.268 0 0 0-1.158-.966 3.064 3.064 0 0 0-2.664-.06c-.396.18-.746.432-1.05.756a3.603 3.603 0 0 0-.972 2.49c0 .484.086.938.258 1.362.172.424.408.798.708 1.122.304.32.656.572 1.056.756.4.18.828.27 1.284.27.376 0 .732-.064 1.068-.192a3.35 3.35 0 0 0 1.638-1.38 3.45 3.45 0 0 0 .426-1.032h-2.268V4.95h3.246a4.29 4.29 0 0 1-.348 1.632c-.22.508-.52.956-.9 1.344-.376.384-.81.686-1.302.906a3.84 3.84 0 0 1-1.572.324ZM97.875.6h.99l-2.832 4.596V9h-.84V5.196L92.367.6h.99l2.256 3.678L97.875.6Z" fill="#fff"/></svg>
